X: 19
T:Postman's Knock: Adderbury
M:6/8
L:1/8
Q:95
S:Bacon TRansposed
Z:Bill Johnsto
K:G
G|GBc d2B| cde d2d| gdc BAG| A3-A2 G|GAB ddd|cde d2B| Agf ed^c|d3-d d>d|
dcB Bgg|gGA B2B| BBB gfe| f3 e2 d | ggg gdB| ABc f2e| dgB B<BA|G3G2||
d2d ddd| efg d3|g>fe g2B| B2A B3| d2d ddd| efg d3|gfe d2g|g3f3| g3g3||
